src/assets/image/sns/ic-sns-twitter.svg

<?xml version="1.0" encoding="UTF-8"?>
<svg width="24px" height="24px" viewBox="0 0 24 24" version="1.1" xmlns="http://www.w3.org/2000/svg" xmlns:xlink="http://www.w3.org/1999/xlink">
    <!-- Generator: sketchtool 54.1 (76490) - https://sketchapp.com -->
    <title>5C46010B-4602-46CF-AFFC-BDEC34512E0C</title>
    <desc>Created with sketchtool.</desc>
    <defs>
        <path d="M24,4.36764175 C23.1181546,4.76923077 22.1686917,5.04080896 21.1727417,5.1621524 C22.1898222,4.5381004 22.9702412,3.54857349 23.3379116,2.3698086 C22.3856313,2.94763453 21.3333333,3.36800289 20.2091918,3.593355 C19.3132594,2.61249549 18.0327522,2 16.6156013,2 C13.8982215,2 11.693608,4.26074395 11.693608,7.04875406 C11.693608,7.44456482 11.735869,7.82881907 11.8203909,8.19862766 C7.72812115,7.9877212 4.10072196,5.97977609 1.67071668,2.92163236 C1.24669836,3.66991694 1.00440218,4.5381004 1.00440218,5.46262189 C1.00440218,7.21343445 1.87356929,8.75911882 3.19492868,9.66486096 C2.38915302,9.64030336 1.62845571,9.41061755 0.963549921,9.0350307 L0.963549921,9.09714698 C0.963549921,11.5442398 2.66103187,13.5854099 4.91494982,14.0476706 C4.50220109,14.166125 4.06691319,14.2253521 3.6175383,14.2253521 C3.30058109,14.2253521 2.99066737,14.1950163 2.69061454,14.1357891 C3.31748547,16.1408451 5.13470681,17.6013001 7.29001585,17.6403034 C5.60521219,18.9953052 3.48089452,19.8028169 1.17485473,19.8028169 C0.77760169,19.8028169 0.384574749,19.7797039 0,19.7334778 C2.17925691,21.163597 4.76844515,22 7.54780771,22 C16.6057404,22 21.5573164,14.3076923 21.5573164,7.63524738 C21.5573164,7.41567353 21.5530903,7.19609967 21.5446381,6.98085952 C22.5067794,6.26868906 23.3421377,5.38028169 24,4.36764175" id="path-1"></path>
    </defs>
    <g id="Symbols" stroke="none" stroke-width="1" fill="none" fill-rule="evenodd">
        <g id="ic/sns-twitter">
            <mask id="mask-2" fill="white">
                <use xlink:href="#path-1"></use>
            </mask>
            <use id="Twitter" fill="#000000" xlink:href="#path-1"></use>
            <g id="color/white" mask="url(#mask-2)" fill="#FFFFFF">
                <rect id="Rectangle" x="0" y="0" width="24" height="24"></rect>
            </g>
        </g>
    </g>
</svg>

<svg xmlns="http://www.w3.org/2000/svg" xmlns:xlink="http://www.w3.org/1999/xlink" width="24" height="24" viewBox="0 0 24 24">
    <defs>
        <path id="a" d="M24 4.368a9.617 9.617 0 0 1-2.827.794 5.038 5.038 0 0 0 2.165-2.792 9.698 9.698 0 0 1-3.129 1.223A4.856 4.856 0 0 0 16.616 2c-2.718 0-4.922 2.26-4.922 5.049 0 .396.042.78.126 1.15-4.092-.211-7.72-2.22-10.15-5.277a5.14 5.14 0 0 0-.666 2.54c0 1.751.87 3.297 2.19 4.203a4.834 4.834 0 0 1-2.23-.63v.062c0 2.447 1.697 4.488 3.95 4.95a4.695 4.695 0 0 1-1.296.178c-.317 0-.627-.03-.927-.09.626 2.006 2.444 3.466 4.599 3.505A9.722 9.722 0 0 1 0 19.733 13.71 13.71 0 0 0 7.548 22c9.058 0 14.01-7.692 14.01-14.365 0-.22-.005-.439-.013-.654.962-.712 1.797-1.6 2.455-2.613"/>
    </defs>
    <g fill="none" fill-rule="evenodd">
        <mask id="b" fill="#fff">
            <use xlink:href="#a"/>
        </mask>
        <use fill="#000" xlink:href="#a"/>
        <g fill="#FFF" mask="url(#b)">
            <path d="M0 0h24v24H0z"/>
        </g>
    </g>
</svg>
